dist/img/icons_map/bpw.svg

<svg width="48" height="48" viewBox="0 0 48 48" fill="none" xmlns="http://www.w3.org/2000/svg">
<rect width="48" height="48" rx="24" fill="white"/>
<path fill-rule="evenodd" clip-rule="evenodd" d="M15.2056 29.1131V30.159L15.1818 30.1806C14.1551 30.4 13.1431 30.6583 12.1481 30.9541C11.8042 30.3671 11.5026 29.7521 11.2474 29.1138C10.6352 27.5825 10.2898 25.9158 10.2686 24.1698H10.2247L10.2312 24.1637C10.2305 24.1068 10.2676 24.057 10.2676 24.0001C10.2676 16.3963 16.424 10.2323 24.0184 10.2323C31.6127 10.2323 37.7691 16.3963 37.7691 24.0001C37.7691 24.0567 37.7685 24.1133 37.768 24.1698C37.7464 25.9193 37.389 27.5829 36.7675 29.1131H36.767C36.4894 29.797 36.1593 30.4532 35.7832 31.0786C34.8109 30.7789 33.8328 30.5175 32.8309 30.2905V29.1131V27.8951C32.8309 27.8951 33.0059 27.4353 33.5528 27.4353V24.1698V24.1509C33.0059 24.1509 32.8309 23.6912 32.8309 23.6912V20.7134H31.4753V24.1698V25.0486L27.7213 25.0395L27.9912 24.1698L28.7808 21.6267H27.5582L26.9521 23.4909L26.9467 20.2178H27.9835C28.5906 20.2289 29.2541 20.0059 29.7488 19.6117C30.345 19.1389 30.6405 18.3284 30.6405 17.6077C30.6405 16.4255 29.9834 15.2094 28.4766 15.2094H25.6506V23.6539L26.9029 23.6425L26.7211 24.1698L26.4179 25.0486L25.7898 25.0333L25.439 24.1698L24.375 21.5501H23.2005L22.1221 24.1698L21.7604 25.0486H21.1259L20.844 24.1698L20.6509 23.5667C22.5409 23.0181 22.8436 20.0383 21.3422 19.2288C22.2337 18.9481 23.2272 15.2094 19.9376 15.2094H17.3961V23.6539H19.4202L19.5819 24.1698L19.8574 25.0486H16.5615V24.1698V20.7134H15.2056V23.6912C15.2056 23.6912 15.0306 24.1509 14.4838 24.1509L14.4614 24.2072L14.4838 24.2239V27.4353C15.0306 27.4353 15.2056 27.8951 15.2056 27.8951V29.1131ZM9.9301 29.1131C12.0185 34.8806 17.538 39 24.0184 39C30.4987 39 36.0179 34.8806 38.1066 29.1145L37.4368 29.1138L38.1066 29.1131C38.6664 27.5686 38.9799 25.9045 38.9989 24.1698C38.9996 24.1133 39 24.0567 39 24.0001C39 15.7156 32.2926 9 24.0184 9C15.7441 9 9.0367 15.7156 9.0367 24.0001C9.0367 24.0562 9.03705 24.1122 9.03747 24.169V24.1698L9 24.1627L9.03768 24.1851C9.05866 25.9144 9.3718 27.5733 9.9301 29.1131ZM31.4523 29.1131L31.4446 29.9999C28.9614 29.5266 26.3983 29.279 23.7773 29.279C21.308 29.279 18.9075 29.4986 16.5553 29.9183L16.5568 29.1131L16.5615 26.5376L20.3155 26.5245L20.6798 27.6978H21.928L22.3944 26.5376L25.1534 26.5321L25.6475 27.6978H26.8957L27.2709 26.5376H31.4753L31.4523 29.1131ZM24.1646 24.1698L24.5437 25.0639L23.072 25.0705L23.4543 24.1698L23.8096 23.3322L24.1646 24.1698ZM18.6647 18.621V16.4479H19.3957C20.1154 16.4704 20.8834 16.4994 20.8834 17.2137C20.8834 18.8461 19.4315 18.5656 18.9571 18.621H18.6647ZM26.9426 16.4479H27.6623C28.5507 16.4479 29.3668 16.5943 29.3668 17.5626C29.3668 18.5872 28.4719 18.9296 27.7861 18.9296H26.9426V16.4479ZM19.0301 22.3848L18.7947 21.6267H20.0174L20.2074 22.2111C20.6309 22.0448 21.0109 21.7525 21.0109 21.1046C21.0109 20.1926 20.2503 20.0086 19.272 20.0086H18.6647V22.4155H19.0021L19.0301 22.3848ZM35.0094 32.2748C32.5002 35.6106 28.5107 37.7677 24.0184 37.7677C19.4731 37.7677 15.4429 35.5596 12.9395 32.1567C16.3748 31.1154 20.0026 30.5493 23.7773 30.5493C27.6832 30.5493 31.4493 31.1487 34.9889 32.2609L35.0094 32.2748Z" fill="#8F9190"/>
</svg>

<svg width="48" height="48" viewBox="0 0 48 48" fill="none" xmlns="http://www.w3.org/2000/svg"><rect width="48" height="48" rx="24" fill="#fff"/><path fill-rule="evenodd" clip-rule="evenodd" d="M15.206 29.113v1.046l-.024.022a39.614 39.614 0 00-3.034.773 13.708 13.708 0 01-1.88-6.784h-.043l.006-.006c0-.057.037-.107.037-.164 0-7.604 6.156-13.768 13.75-13.768 7.595 0 13.751 6.164 13.751 13.768l-.001.17a13.543 13.543 0 01-1 4.943h-.001c-.278.684-.608 1.34-.984 1.966-.972-.3-1.95-.562-2.952-.788v-2.396s.175-.46.722-.46V24.15c-.547 0-.722-.459-.722-.459v-2.978h-1.356v4.336l-3.754-.01.27-.87.79-2.542h-1.223l-.606 1.864-.005-3.273h1.037a2.844 2.844 0 001.765-.606c.596-.473.892-1.284.892-2.004 0-1.183-.658-2.399-2.164-2.399H25.65v8.445l1.252-.012-.182.528-.303.879-.628-.016-.351-.863-1.064-2.62H23.2l-1.079 2.62-.362.879h-.634l-.282-.88-.193-.602c1.89-.549 2.193-3.529.691-4.338.892-.28 1.885-4.02-1.404-4.02h-2.542v8.445h2.024l.162.516.275.879H16.56v-4.336h-1.355v2.978s-.175.46-.722.46l-.023.056.023.017v3.211a.77.77 0 01.722.46v1.218zm-5.276 0C12.018 34.881 17.538 39 24.018 39c6.48 0 12-4.12 14.089-9.886h-.67.67A14.964 14.964 0 0039 24c0-8.284-6.707-15-14.982-15-8.274 0-14.981 6.716-14.981 15v.169L9 24.164l.038.022c.02 1.73.334 3.388.892 4.928zm21.522 0l-.007.887a40.922 40.922 0 00-7.668-.721c-2.469 0-4.87.22-7.222.64l.002-.806.005-2.575 3.753-.014.365 1.174h1.248l.466-1.16 2.76-.006.494 1.166h1.248l.375-1.16h4.204l-.023 2.575zm-7.287-4.943l.379.894-1.472.006.382-.9.356-.838.355.838zm-5.5-5.549v-2.173h.73c.72.022 1.488.051 1.488.766 0 1.632-1.451 1.352-1.926 1.407h-.292zm8.278-2.173h.72c.888 0 1.704.146 1.704 1.115 0 1.024-.895 1.367-1.58 1.367h-.844v-2.482zm-7.913 5.937l-.235-.758h1.222l.19.584c.424-.166.804-.458.804-1.106 0-.912-.76-1.096-1.739-1.096h-.607v2.407h.337l.028-.031zm15.98 9.89a13.725 13.725 0 01-10.992 5.493 13.726 13.726 0 01-11.079-5.611 37.253 37.253 0 0110.838-1.608c3.906 0 7.672.6 11.212 1.712l.02.014z" fill="#8F9190"/></svg>
